svgs/thin/expand.svg

<svg xmlns="http://www.w3.org/2000/svg" viewBox="0 0 448 512"><!-- Font Awesome Pro 6.0.0-alpha2 by @fontawesome - https://fontawesome.com License - https://fontawesome.com/license (Commercial License) --><path d="M152 32H8C3.594 32 0 35.594 0 40V184C0 188.406 3.594 192 8 192S16 188.406 16 184V48H152C156.406 48 160 44.406 160 40S156.406 32 152 32ZM440 32H296C291.594 32 288 35.594 288 40S291.594 48 296 48H432V184C432 188.406 435.594 192 440 192S448 188.406 448 184V40C448 35.594 444.406 32 440 32ZM440 320C435.594 320 432 323.594 432 328V464H296C291.594 464 288 467.594 288 472S291.594 480 296 480H440C444.406 480 448 476.406 448 472V328C448 323.594 444.406 320 440 320ZM152 464H16V328C16 323.594 12.406 320 8 320S0 323.594 0 328V472C0 476.406 3.594 480 8 480H152C156.406 480 160 476.406 160 472S156.406 464 152 464Z"/></svg>

<svg xmlns="http://www.w3.org/2000/svg" viewBox="0 0 448 512"><!--! Font Awesome Pro 6.3.0 by @fontawesome - https://fontawesome.com License - https://fontawesome.com/license (Commercial License) Copyright 2023 Fonticons, Inc. --><path d="M152 32h-144C3.594 32 0 35.59 0 40v144C0 188.4 3.594 192 8 192S16 188.4 16 184V48h136C156.4 48 160 44.41 160 40S156.4 32 152 32zM440 32h-144C291.6 32 288 35.59 288 40s3.594 8 8 8h136v136C432 188.4 435.6 192 440 192S448 188.4 448 184v-144C448 35.59 444.4 32 440 32zM440 320c-4.406 0-8 3.594-8 8v136h-136c-4.406 0-8 3.594-8 8S291.6 480 296 480h144c4.406 0 8-3.594 8-8v-144C448 323.6 444.4 320 440 320zM152 464H16v-136C16 323.6 12.41 320 8 320S0 323.6 0 328v144C0 476.4 3.594 480 8 480h144C156.4 480 160 476.4 160 472S156.4 464 152 464z"/></svg>
